icons/flag-line.svg

<svg xmlns="http://www.w3.org/2000/svg" width="24" height="24" fill="none"><g clip-path="url(#a)"><g><path fill="#121212" d="M5 16V22H3V3H12.382C12.5677 3.0001 12.7496 3.05188 12.9075 3.14955C13.0654 3.24722 13.193 3.38692 13.276 3.553L14 5H20C20.2652 5 20.5196 5.10536 20.7071 5.29289C20.8946 5.48043 21 5.73478 21 6V17C21 17.2652 20.8946 17.5196 20.7071 17.7071C20.5196 17.8946 20.2652 18 20 18H13.618C13.4323 17.9999 13.2504 17.9481 13.0925 17.8504C12.9346 17.7528 12.807 17.6131 12.724 17.447L12 16H5ZM5 5V14H13.236L14.236 16H19V7H12.764L11.764 5H5Z"/></g></g><defs><clipPath id="a"><rect width="24" height="24" fill="white"/></clipPath></defs></svg>

<svg width="24" height="24" fill="none" xmlns="http://www.w3.org/2000/svg"><g clip-path="url(#a)"><path d="M5 16v6H3V3h9.382a1 1 0 0 1 .894.553L14 5h6a1 1 0 0 1 1 1v11a1 1 0 0 1-1 1h-6.382a1 1 0 0 1-.894-.553L12 16H5ZM5 5v9h8.236l1 2H19V7h-6.236l-1-2H5Z" /></g><defs><clipPath id="a"><path fill="#fff" d="M0 0h24v24H0z"/></clipPath></defs></svg>
